X: 1
T:Sonny Brogan's
M:6/8
L:1/8
Q:80
C:Arranged by T. Tully
S:Jig
K:HP
{g}AGA{g}"flatc"c3|
{gde}d"flatc"cd{gef}e3|
{g}AGA{g}"flatc"c3|  !
{g}edB{gBd}BAG{g}AGA{g}"flatc"c3|
{gde}d"flatc"cd{gef}e3|
a{g}a{g}aged|  !
{g}BAG{g}A3:|
{g}eaAa{g}a{g}a|
gef{a}g3|  !
eaAa{g}a{g}a|
ged{gBd}BAG{g}AaAa{g}a{g}a|
gef{a}g2e|  !
a{g}a{g}aged|
{g}BAG{g}A3{g}"flatc"cAB"flatc"c{e}"flatc"c{G}"flatc"c|
d{e}d{c}de{g}e{A}e|  !
{g}"flatc"cAB"flatc"c{e}"flatc"c{G}"flatc"c|
{g}edB{gBd}BAG{g}"flatc"cAB"flatc"c{e}"flatc"c{G}"flatc"c|
d{e}d{c}de{g}e{A}e|  !
a{g}a{g}aged|
{g}BAG{g}A3:|
aAga{g}a{g}a|  !
gef{a}gAg|
a{g}a{g}aga{g}a|
ged{g}BAGaAga{g}a{g}a|  !
gef{a}gAg|
a{g}a{g}aged|
{g}BAG{g}A3:|  !
